X:81
M:6/8
L:1/8
Q:120
K:GDor
d2c d2e|f>gf F2B|A2B cd=B|c3 c2f|d>cd c2A|Bb2 a2d|d2g g>a^f|g3 g3||

